X:1
T:Title
%%score ( 1 2 ) { 3 | 4 }
L:1/8
Q:1/4=100
M:4/4
K:C
V:1 treble nm="Grand Piano, Soprano"
V:2 treble 
V:3 treble nm="Choir Pad, His Love Will Never Let Me Fall"
V:4 bass 
V:1
 [CE][DF] [EG]2- [EG][EG][FA][EG] | [DF][CE] [EG]2- [EG][_E^F] [D=F]2 | %2
w: By~James~Milton~Black * * * * * *||
 [DF][EG] [FB]2- [FB][Ec][Fd][DB] | [CG][DF] [CE]6 | [CE][DF] [EG]2- [EG][EG][FA][EG] | %5
w: |||
 [_E^F][=EG] [=FA]2- [FA][GB] [Ac]2 | [FB][Fc][^Fd][Fc] [FB][Fc] [FB]2 | [^FA]2 G2 E2 =F2 | %8
w: |||
 [FG]2 [Ec]2- [Ec][DB] [Ec]2 | [CE]2 [B,F]2- [B,F][_B,E] [=B,F]2 | %10
w: ||
 [DF][EG] [FB]2- [FB][FA][FB][Fd] | [DB][FA] [EG]6 | [EG]2 [Ec]2- [Ec][FB] [Gc]2 | %13
w: |||
 [Ge]2 [Ad]2- [Ad][FA] [Ac]2 | BA[=EG][EG] [Gc][Gc] [^Fd]2 | [FB]2 [Ec]6- | [Ec]2 z2 z4 |] %17
w: ||||
V:2
 x8 | x8 | x8 | x8 | x8 | x8 | x8 | x8 | x8 | x8 | x8 | x8 | x8 | x8 | _E2 z2 z4 | x8 | x8 |] %17
V:3
 G,G, C2- CCCC | G,G, B,2- B,B, B,2 | B,B,[K:treble] D2- DDB,G, | G,G, G,6 | %4
 G,G,[K:treble] C2- CCCC | CC C2- CC C2 | ^G,A,A,E D[K:treble]E D2 | C2 B,2 C2 D2 | %8
 B,2 G,2- G,G, G,2 | G,2 G,G, G,G, G,2 | B,2[K:treble] DD DC B,2 | G,B,CC CC C2 | %12
 C2[K:bass] G,2- G,G, C2 | C2[K:treble] C2- CC C2 | C2 CC CC C2 | D2 C6- | C2 z2 z4 |] %17
V:4
 C,C, C,2- C,C,C,C, | C,C, G,,2- G,,G,, G,,2 | G,,G,, G,2- G,G,G,G,, | A,,B,, C,6 | %4
 C,C, C,2- C,C,C,C, | C,C, F,2- F,F, F,2 | F,F,D,D, D,D, D,2 | D,2 G,6 | G,2 C,2- C,C, C,2 | %9
 C,2 D,D, D,G,, D,2 | G,,2 G,,G,, G,,G,, G,,2 | G,,2 C,C, C,G,, C,2 | C,2 C,2- C,D, E,2 | %13
 C,2 F,2- F,F, F,2 | ^F,2 G,G, E,E, D,2 | G,,2 C,6- | C,2 z2 z4 |] %17

